X: 116
T: Terry 'Cuz' Teehan's
M: C|
L: 1/8
R: slow reel
K:Emin
"Em"B2 BA B2 AB|"Bm"dBAF "D" DEFA|"Em"B2 BA B2 AB|"Bm"dBAF "Em"E4|
"Em"B2 BA B2 BA|"Bm"dBAF "D" DEFA|"Em"B2 BA B2 BA|"Bm"dBAF "Em" E4||
"Em"Beef "(G)"g2 fe|"Bm"d2 Bd "D"ADFA|"Em"Beef "(G)"g2 fe|"Bm"dBAF "Em" E4|
"Em"Beef "(G)"g2 fe|"Bm"d2 Bd "D"ADFA|"Em"Beed "Bm"BAFE| "D"DEFD "Em"EFGA||


